src/assets/images/communityActive.svg

<svg fill="none" height="24" viewBox="0 0 24 24" width="24" xmlns="http://www.w3.org/2000/svg"><path d="m12 0c-6.61649 0-12 5.24496-12 11.6912 0 3.7698 1.84959 7.119 4.70192 9.2584.43736.4133.96155.7601 1.56491 1.0082 1.70454.9071 3.65801 1.4245 5.73317 1.4245 6.6165 0 12-5.2449 12-11.6911 0-6.44624-5.3835-11.6912-12-11.6912zm0 1.79864c5.6188 0 10.1538 4.41838 10.1538 9.89256 0 2.8388-1.2259 5.3872-3.1838 7.1892 1.0833-1.5397 1.7199-3.4001 1.7199-5.4029 0-5.28197-4.4132-9.58338-9.8347-9.58338-3.6687 0-6.87118 1.97275-8.56193 4.88303 1.27323-4.04613 5.12973-6.97851 9.70673-6.97851zm-1.1448 3.89412c4.4237 0 7.9886 3.47482 7.9886 7.78474 0 2.3338-1.0507 4.4171-2.7116 5.8421.7854-1.1715 1.2458-2.5673 1.2458-4.0663 0-4.1128-3.4408-7.46681-7.66225-7.46681-2.78128 0-5.21738 1.46107-6.5607 3.63061.92476-3.30331 4.01012-5.72434 7.70015-5.72434zm-1.13945 3.89237c3.22365 0 5.81615 2.52747 5.81615 5.66817 0 1.7523-.8073 3.3115-2.0806 4.3491.413-.7967.6184-1.6812.6184-2.5628 0-1.3145-.4454-2.6425-1.3774-3.664-.9319-1.0214-2.3669-1.695-4.12319-1.695-1.75631 0-3.18945.6736-4.12139 1.695-.12858.1409-.24501.2892-.35517.4409.65041-2.439 2.91037-4.23137 5.6232-4.23137zm-1.14664 3.89417c1.29477 0 2.15039.4419 2.74399 1.0925s.9105 1.553.9105 2.4678c0 .9149-.3169 1.8173-.9105 2.4679s-1.44922 1.0908-2.74399 1.0908c-.49326 0-.90478-.0799-1.28005-.195-.57351-.2554-1.09447-.5978-1.54868-1.0117-.53243-.6404-.82391-1.4871-.82391-2.352 0-.9148.31686-1.8172.91045-2.4678.5936-.6506 1.44742-1.0925 2.74219-1.0925z" fill="#4e47db"/></svg>

<svg width="24" height="24" viewBox="0 0 24 24" fill="none" xmlns="http://www.w3.org/2000/svg">
<path d="M12 0C5.38351 0 0 5.24496 0 11.6912C0 15.461 1.84959 18.8102 4.70192 20.9496C5.13928 21.3629 5.66347 21.7097 6.26683 21.9578C7.97137 22.8649 9.92484 23.3823 12 23.3823C18.6165 23.3823 24 18.1374 24 11.6912C24 5.24496 18.6165 0 12 0ZM12 1.79864C17.6188 1.79864 22.1538 6.21702 22.1538 11.6912C22.1538 14.53 20.9279 17.0784 18.97 18.8804C20.0533 17.3407 20.6899 15.4803 20.6899 13.4775C20.6899 8.19553 16.2767 3.89412 10.8552 3.89412C7.1865 3.89412 3.98402 5.86687 2.29327 8.77715C3.5665 4.73102 7.423 1.79864 12 1.79864ZM10.8552 5.69276C15.2789 5.69276 18.8438 9.16758 18.8438 13.4775C18.8438 15.8113 17.7931 17.8946 16.1322 19.3196C16.9176 18.1481 17.378 16.7523 17.378 15.2533C17.378 11.1405 13.9372 7.78649 9.71575 7.78649C6.93447 7.78649 4.49837 9.24756 3.15505 11.4171C4.07981 8.11379 7.16517 5.69276 10.8552 5.69276ZM9.71575 9.58513C12.9394 9.58513 15.5319 12.1126 15.5319 15.2533C15.5319 17.0056 14.7246 18.5648 13.4513 19.6024C13.8643 18.8057 14.0697 17.9212 14.0697 17.0396C14.0697 15.7251 13.6243 14.3971 12.6923 13.3756C11.7604 12.3542 10.3254 11.6806 8.56911 11.6806C6.8128 11.6806 5.37966 12.3542 4.44772 13.3756C4.31914 13.5165 4.20271 13.6648 4.09255 13.8165C4.74296 11.3775 7.00292 9.58513 9.71575 9.58513ZM8.56911 13.4793C9.86388 13.4793 10.7195 13.9212 11.3131 14.5718C11.9067 15.2224 12.2236 16.1248 12.2236 17.0396C12.2236 17.9545 11.9067 18.8569 11.3131 19.5075C10.7195 20.1581 9.86388 20.5983 8.56911 20.5983C8.07585 20.5983 7.66433 20.5184 7.28906 20.4033C6.71555 20.1479 6.19459 19.8055 5.74038 19.3916C5.20795 18.7512 4.91647 17.9045 4.91647 17.0396C4.91647 16.1248 5.23333 15.2224 5.82692 14.5718C6.42052 13.9212 7.27434 13.4793 8.56911 13.4793Z" fill="#4E47DB"/>
</svg>
